X:1
T:Title
%%score 1 2
L:1/8
Q:1/4=68
M:6/8
K:A
V:1 treble nm="Strings 1, Soprano"
V:2 bass nm="Strings 1, Bass"
V:1
 [CA][CA][CA] [Ec]2 [CA] | [CA]3 .[CE]3 | [DF][DF][DF] [FA]2 [DF] | [DF]3 .[CE]3 | %4
w: 1.~How~ can~ you~ part~ with~|Je sus,~|lov ing,~ so~ kind,~ and~|gra cious?~|
 [CA][CA][CA] [Ec]2 [CA] | [DA]3 [DF]2 [DF] | [CE][CE][EA] [EA]2 [EG] | [EA]3- [EA]2 [EA] | %8
w: ser vice~ to~ me~ is~|pre cious;~ I'm~|hap py,~ re deemed,~ and~|free.~ * *|
 [EG]3- [EG]2 [EB] | [EA]3- [EA]2 [Ac] | [GB]3- [GB]2 [Bd] | [Ac]3- [Ac]2 E | %12
w: ||||
 [EA][EA][EA] [Ec]2 [CA] | [DA]3 [DF]2 [DF] | [CE][CE][EA] [EA]2 [EG] | [EA]6 |] %16
w: ||||
V:2
 [A,,E,][A,,E,][A,,E,] [A,,A,]2 [A,,E,] | [A,,E,]3 .[A,,A,]3 | [D,A,][D,A,][D,A,] [D,A,]2 [D,A,] | %3
 [A,,A,]3 .[A,,A,]3 | [A,,E,][A,,E,][A,,E,] [A,,A,]2 [A,,E,] | [D,F,]3 [D,A,]2 [D,A,] | %6
 [E,A,][E,A,][E,C] [E,C]2 [E,D] | [A,,C]3- [A,,C]2 [A,,C] | [E,B,]2 [E,B,] [E,B,]2 [E,D] | %9
 [A,,C][A,,C][A,,C] [A,,C]2 [A,,E] | [E,E]2 [E,E] [E,E]2 [E,E] | [A,,E][C,E][E,E] [A,E]2 [A,,C] | %12
 [A,,C][A,,C][A,,C] [A,,A,]2 [A,,E,] | [D,F,]3 [D,A,]2 [D,A,] | [E,A,][E,A,][E,C] [E,C]2 [E,D] | %15
 [A,,C]6 |] %16

